X:1
T:Si sa vertu
T:Si sa vertu
T:Jacques  Arcadelt
T:Source : XXVe Livre de Chansons nouvelles à 4 parties---Paris---P.Attaignant---1547 Editor : André Vierendeels (16/01/15). Notes : Original clefs : C1, C3, C4, F4 Original note values have been halved Editorial accidentals above the staff Square bracket indicates mligature
C:Jacques  Arcadelt
%%score [ 1 [ 2 3 4 ] ]
L:1/8
Q:1/4=95
M:3/2
K:C
V:1 treble nm="Superius" snm="S"
V:2 treble-8 nm="Tenor 1" snm="T 1"
V:3 treble-8 nm="Tenor 2" snm="T 2"
V:4 bass nm="Bassus" snm="B"
V:1
 D4 E4 F4 | G8 F4 | E8 E4 | G8 A4 | c4 B4 B4 | A8 A4 | A4 G4 F4 | E4 D8 |[M:2/2] C4 z2 C2 | %9
w: 1)Si- sa ver-|tu et|gra- ce'à|lay- mer|m'ont con- trainct|et que|crain- te sur-|pas- *|se, le|
w: 2)Las, si ma|de- sti-|ne- e,|est de|vi- vre'à ce|poinct, et|loy me soit|don- ne-|e, de|
 D2 F2 E2 D2 |[M:3/2] E8 E4 | E8 E4 | F8 G4 |[M:2/2] G4 z2 G2 | A2 c2 B2 A2 | G4 z2 F2 | %16
w: de- sir est res-|treint qui|peult au|grief tour-|ment, dont|mon cueur est es-|traint, don-|
w: ne l'ap- pro- cher|point, l'es-|prit tant|plus se-|ra, de|ne l'ap- pro- cher|point, de|
 E2 D2 D2 C2 |[M:3/2] D8 E4 | E8 E4 | F8 G4 |[M:2/2] G4 z2 G2 | A2 c2 B2 A2 | G4 z2 F2 | %23
w: ner sou- la- ge-|ment, qui|peult au|grief tour-|ment,- dont|mon cueur est es-|traint, don-|
w: le n'ap- pro- cher|point, l'es-|prit tant|plus se-|ra, de|ne l'ap- pro- cher|point, de|
 E2 D2 D2 C2 | D8 |] %25
w: ner sou- la- ge-|ment.|
w: ne l'ap- pro- cher|point.|
V:2
 A4 c4 d4 | e8 d4 | B8 B4 | e8 f4 | e4 g4 d4 | f8 f4 | f4 e4 d4 | c4 F4 G4 |[M:2/2] A4 z2 A2 | %9
w: 3)A el- le|vay et|ioinct que|plus mes-|lon- ge- ra|et loeil|cau- se pre-|mi- e- *|er, du|
w: 4)Qui va tous-|iours brus-|lant, car|rien plus|ne me plaist|en ce|plai- sir do-||lent, si|
 B2 c2 c2 A2 |[M:3/2] c8 c4 | c8 B4 | d8 d4 |[M:2/2] e4 z2 e2 | f2 g2 g2 f2 | e3 d cB c2 | %16
w: feu- _ vi- o-|lent ne|per- dra|la lu-|mier', du|feu vi- o- lent,|du _ _ _ _|
w: la lan- gue se|taist, si|la lan-|gue se|taist, si|la lan- gue se|taist _ _ _ si|
 B2 G2 A2 A2 |[M:3/2] F8 c4 | c8 B4 | d8 d4 |[M:2/2] e6 e2 | f2 g2 g2 f2 | e3 d cB c2 | %23
w: feu _ vi- o-|lent, ne|per- dra|la lu-|mier', du|feu vi- o- lent,|du _ _ _ _|
w: la lan- gue se|taist, si|la lan-|gue se|taist, si|la lan- gue se|taist _ _ _ si|
 B2 G2 A2 A2 | F8 |] %25
w: feu _ vi- o-|lent|
w: la lan- gue se|taist.|
V:3
 F4 A4 A4 | c8 A4 | ^G8 =G4 | c8 c4 | c4 d4 B4 | c8 d4 | c4 c4 A4 | A4 D8 |[M:2/2] E4 z2 E2 | %9
w: 1)Si sa ver-|tu et|gra- ce'à|lay- mer|m'ont con- trainct|et que|crain- te sur-|pas- *|se, le|
w: 2)Las, si ma|de- sti-|ne- e,|est de|vi- vre'à ce|poinct, et|loy me soit|don- ne-|e, de|
 G2 A2 G2 F2 |[M:3/2] G8 G4 | G8 G4 | A8 B4 |[M:2/2] c4 z2 c2 | c2 e2 e2 c2 | c3 B AG A2 | %16
w: de- sir est res-|treint qui|peult au|grief tour-|ment, dont|mon cueur est es-|traint, _ _ _ don-|
w: ne l'ap- pro- cher|point, l'es-|prit tant|plus se-|ra, de|ne l'ap- pro- cher|point, _ _ _ de|
 GF ED E2 E2 |[M:3/2] D8 G4 | G8 G4 | A8 B4 |[M:2/2] c4 z2 c2 | c2 e2 e2 c2 | c3 B AG A2 | %23
w: ner _ sou- * la- ge-|ment, qui|peult au|grief tour-|ment, dont|mon cueur est es-|traint, _ _ _ don-|
w: ne _ l'ap- * pro- cher|point, l'es-|prit tant|plus se-|ra, de|ne l'ap- pro- cher|point, _ _ _ de|
 GF ED E2 E2 | D8 |] %25
w: ner _ sou- * la- ge-|ment.|
w: ne _ l'ap- * pro- cher|point.|
V:4
 D,4 A,,4 D,4 | C,8 D,4 | E,8 E,4 | C,8 F,4 | A,4 G,4 G,4 | F,8 D,4 | F,4 C,4 D,4 | A,,4 _B,,8 | %8
w: 3)A el- le|vay et|joinct que|plus mes-|lon- ge- ra|et loeil|cau- se pre-|mi- e-|
w: 4)Qui va tous-|iours brus-|lant, car|rien plus|ne me plaist|en ce|plai- sir do-||
[M:2/2] A,,4 z2 A,,2 | G,,2 F,,2 C,2 D,2 |[M:3/2] C,8 C,4 | C,8 E,4 |"^#" D,8 G,,4 | %13
w: re, du|feu _ vi- o-|lent ne|per- dra|la lu-|
w: lent, si|la lan- gue se|taist, si|la lan-|gue se|
[M:2/2] C,4 z2 C,2 | F,2 C,2 E,2 F,2 | C,4 F,,4 |"^b" G,,2 B,,2 A,,2 A,,2 |[M:3/2] D,8 C,4 | %18
w: mier', du|feu vi- o- lent,|du feu|vi- * * o-|lent, ne|
w: taist, si|la lan- gue se|taist si|la lan- gue se|taist, si|
 C,8 E,4 |"^#" D,8 G,,4 |[M:2/2] C,4 z2 C,2 | F,2 C,2 E,2 F,2 | C,4 F,,4 | %23
w: per- dra|la lu-|mier', du|feu vi- o- lent,|du feu|
w: la lan-|gue se|taist, si|la lan- gue se-|taist, si|
"^b" G,,2 B,,2 A,,2 A,,2 | D,8 |] %25
w: vi- * * o-|lent.|
w: la lan- gue se|taist.|

